packages/icons/svg/Outline/save.svg

<svg fill="none" height="24" viewBox="0 0 24 24" width="24" xmlns="http://www.w3.org/2000/svg"><path clip-rule="evenodd" d="m19 18.0001c0 .551-.448 1-1 1h-2v-3c0-.552-.447-1-1-1h-5.99998c-.553 0-1 .448-1 1v3h-2c-.552 0-1-.449-1-1v-12.00003c0-.551.448-1 1-1h2v5.00003c0 .552.447 1 1 1h3.99998c.553 0 1-.448 1-1 0-.55203-.447-1.00003-1-1.00003h-3v-4h3.172c.263 0 .52.107.707.293l4.828 4.82803c.189.189.293.441.293.708zm-9.00002 1h4.00002v-2h-4.00002zm10.12102-10.2931-4.828-4.828c-.566-.567-1.32-.879-2.121-.879h-7.172c-1.654 0-3 1.346-3 3v12c0 1.654 1.346 3 3 3h3 6 3c1.654 0 3-1.346 3-3v-7.171c0-.802-.313-1.556-.879-2.122z" fill="#6b7280" fill-rule="evenodd"/></svg>

<svg width="24" height="24" viewBox="0 0 24 24" fill="none" xmlns="http://www.w3.org/2000/svg">
<g id="Icon/Outline/save">
<path id="Mask" fill-rule="evenodd" clip-rule="evenodd" d="M19 18C19 18.551 18.552 19 18 19H16V16C16 15.448 15.553 15 15 15H9C8.447 15 8 15.448 8 16V19H6C5.448 19 5 18.551 5 18V6C5 5.449 5.448 5 6 5H8V10C8 10.552 8.447 11 9 11H13C13.553 11 14 10.552 14 10C14 9.448 13.553 9 13 9H10V5H13.172C13.435 5 13.692 5.107 13.879 5.293L18.707 10.121C18.896 10.31 19 10.562 19 10.829V18ZM10 19H14V17H10V19ZM20.121 8.707L15.293 3.879C14.727 3.312 13.973 3 13.172 3H6C4.346 3 3 4.346 3 6V18C3 19.654 4.346 21 6 21H9H15H18C19.654 21 21 19.654 21 18V10.829C21 10.027 20.687 9.273 20.121 8.707Z" fill="#000000"/>
</g>
</svg>
